svgs/regular/face-awesome.svg

<svg xmlns="http://www.w3.org/2000/svg" viewBox="0 0 512 512"><!--! Font Awesome Pro 6.3.0 by @fontawesome - https://fontawesome.com License - https://fontawesome.com/license (Commercial License) Copyright 2023 Fonticons, Inc. --><path d="M464 256A208 208 0 1 0 48 256a208 208 0 1 0 416 0zM0 256a256 256 0 1 1 512 0A256 256 0 1 1 0 256zm192-32V200c0-2-.1-3.9-.4-5.8c-4.2 3.6-9.6 5.8-15.6 5.8c-13.3 0-24-10.7-24-24c0-6 2.2-11.4 5.8-15.6c-1.9-.3-3.8-.4-5.8-.4c-22.1 0-40 17.9-40 40v24h80zm-40-96c39.8 0 72 32.2 72 72v24c0 17.7-14.3 32-32 32H112c-17.7 0-32-14.3-32-32V200c0-39.8 32.2-72 72-72zm216 72c-13.3 0-24-10.7-24-24c0-5.4 1.8-10.3 4.7-14.3c-4.1-1.1-8.3-1.7-12.7-1.7c-26.5 0-48 21.5-48 48v16h96V208c0-4.4-.6-8.7-1.7-12.7c-4 3-8.9 4.7-14.3 4.7zm-32-72c44.2 0 80 35.8 80 80v17.9c0 16.6-13.5 30.1-30.1 30.1H286.1c-16.6 0-30.1-13.5-30.1-30.1V208c0-44.2 35.8-80 80-80zM100.4 307.8c-2.3-10.2 5.5-19.8 15.9-19.8h0H395.7h0c10.4 0 18.1 9.6 15.9 19.8c-3.9 17.4-10.6 33.6-19.5 48.2l0 0c-28.2 45.9-78.9 75.6-134.9 76l-1.1 0c-4.6 0-9.3-.2-13.8-.6c-68.5-5.9-126.7-55.6-141.8-123.6zm263.8 32.4c-8.2-2.7-16.9-4.2-25.9-4.2c-39.2 0-71.9 27.3-80.2 64c44.1-.7 83.8-24.1 106.2-59.8z"/></svg>

<svg xmlns="http://www.w3.org/2000/svg" viewBox="0 0 512 512"><!--! Font Awesome Pro 6.2.0 by @fontawesome - https://fontawesome.com License - https://fontawesome.com/license (Commercial License) Copyright 2022 Fonticons, Inc. --><path d="M224 200V224C224 241.7 209.7 256 192 256H112C94.33 256 80 241.7 80 224V200C80 160.2 112.2 128 152 128C191.8 128 224 160.2 224 200zM192 224V200C192 198 191.9 196.1 191.6 194.2C187.4 197.8 181.1 200 176 200C162.7 200 152 189.3 152 176C152 170 154.2 164.6 157.8 160.4C155.9 160.1 153.1 160 152 160C129.9 160 112 177.9 112 200V224H192zM416 208V225.9C416 242.5 402.5 256 385.9 256H286.1C269.5 256 255.1 242.5 255.1 225.9V208C255.1 163.8 291.8 128 336 128C380.2 128 416 163.8 416 208H416zM344 176C344 170.6 345.8 165.7 348.7 161.7C344.7 160.6 340.4 160 336 160C309.5 160 288 181.5 288 208V224H384V208C384 203.6 383.4 199.3 382.3 195.3C378.3 198.2 373.4 200 368 200C354.7 200 344 189.3 344 176zM116.3 288H395.7C406.1 288 413.9 297.6 411.6 307.8C407.7 325.2 401 341.4 392.1 356C363.9 401.9 313.2 431.6 257.1 431.1L256 432C251.4 432 246.7 431.8 242.2 431.4C173.7 425.5 115.5 375.8 100.4 307.8C98.14 297.6 105.9 288 116.3 288H116.3zM338.3 336C299.1 336 266.4 363.3 258 399.1C302.1 399.3 341.8 375.9 364.2 340.2C356.1 337.5 347.4 336 338.3 336V336zM512 256C512 397.4 397.4 512 256 512C114.6 512 0 397.4 0 256C0 114.6 114.6 0 256 0C397.4 0 512 114.6 512 256zM256 48C141.1 48 48 141.1 48 256C48 370.9 141.1 464 256 464C370.9 464 464 370.9 464 256C464 141.1 370.9 48 256 48z"/></svg>
